X: 37
T: Rossy Castle
S: Fitzmaurice Collection
N: 182193
Z: BB
L: 1/8
M: 6/8
R: jig
Q: 1/4=165
K: D
A/G/ | FDD FDD | FGF FED | AFF dFF | EFE E2 A/G/ |
FDD FDD | FGF FED | AFF dFF | DED D2 :|
a/g/ | fdd ecc | BdB AGF | fda eca | dB^g a2 a/=g/|
fdd ecc | BdB AGF | AFF dFF | DED D2 :|
%%%%%
